X: 4
T: The Concertina
R: reel
M: 4/4
L: 1/8
K: Dmaj
|:A2FA BAFA|A2FA BAFA|B2cA BAcA|BAcA BAFG|
A2FA BAFA|A2FA BAFE|D2Bc (3ddd dB|AFEF D4:|
|:Ad ~d2 Ad ~d2|AddA BAFA|B2cA BAcA|BAcA BAFG|
Ad ~d2 Ad ~d2|Addc BAFE|D2 FA BcdB|AFEF D4:|


Tune 18	Setting 12388

